X:1
T:Title
%%score { 1 | ( 2 3 ) }
L:1/8
Q:1/4=100
M:4/4
K:G
V:1 treble nm="Grand Piano"
V:2 bass 
V:3 bass 
V:1
 B2 D2 B2 c>B | [EA]2 [DE]2 [CA]4 | F2 G>G A2 D2 | B6 z2 | B2 D2 B2 c>B | %5
w: T.~E.~Perkins * * * *|||||
 [A,EA]2 [^G,DE]2 [A,CA]4 | [A,DF]2 [B,DG]>[CDA] [DGB]2 [CFA]2 | [B,G]6 z2 | %8
w: |||
 [DFA]2 [DF]>[DEG] [DFA]2 [DGB]2 | [DAc]3 [DGB] [DFA]4 | [DGB]2 [B,DG]>[CDA] [DB]2 [DGd]2 | %11
w: |||
 [DFA]6 z2 | [DFA]2 [DF]>[DEG] [DFA]2 [DGB]2 | [DAc]3 [DGB] [DFA]4 | [DGB]2 [DAd]>[DAd] [Ge]2 ^c2 | %15
w: ||||
 [Fd]4 c4 | B2 D2 B2 c>B | [EA]2 [DE]2 [CA]4 | F2 G>G A2 D2 | B6 z2 | B2 D2 B2 c>B | %21
w: ||||||
 [A,EA]2 [^G,DE]2 [A,CA]4 | [A,DF]2 [B,DG]>[CDA] [DGB]2 [CFA]2 |[M:8/4] [B,G]8 z8 |] %24
w: |||
V:2
 [G,D]2 [G,B,]2 [G,D]2 [G,E]>[G,D] | [C,A,]2 [B,,^G,]2 [A,,A,]4 | %2
 [D,A,D]2 [D,B,D]>[D,B,D] [D,CD]2 [D,F,]2 | [G,D]6 z2 | [G,D]2 [G,B,]2 [G,D]2 [F,G,E]>[G,D] | %5
 C,2 B,,2 A,,4 | D,2 D,>D, D,2 D,2 | G,6 z2 | D,2 D,>D, D,2 G,2 | F,3 G, D,4 | G,2 G,>G, G,2 B,,2 | %11
 D,6 z2 | D,2 D,>D, D,2 G,2 | F,3 G, D,4 | G,2 F,>F, [E,B,]2 [A,G]2 | A,4[K:treble] [DA]4 | %16
 [G,D]2 [G,B,]2 [G,D]2 [G,E]>[K:bass][G,D] | [C,A,]2 [B,,^G,]2 [A,,A,]4 | %18
 [D,A,D]2 [D,B,D]>[D,B,D] [D,CD]2 [D,F,]2 | [G,D]6 z2 | [G,D]2 [G,B,]2 [G,D]2 [F,G,E]>[G,D] | %21
 C,2 B,,2 A,,4 | D,2 D,>D, D,2 D,2 |[M:8/4] G,8 z8 |] %24
V:3
 x8 | x8 | x8 | x8 | x8 | x8 | x8 | x8 | x8 | x8 | x8 | x8 | x8 | x8 | x8 | D,8[K:treble] | %16
 x15/2[K:bass] x/ | x8 | x8 | x8 | x8 | x8 | x8 |[M:8/4] x16 |] %24

